X: 11
T:Anniversary Reel
% Nottingham Music Database
S:Chris Dewhurst (1978), via PR
M:4/4
L:1/4
K:D
"A7"de |"D"f3/2d/2 Ad|"G"Bd "A"c/2d/2e|"D"d2 A2|"D7"F3/2F/2 GA|"G"Bd2B|\
"D"A3/2G/2 "Bm"FG|"Em"E4-|"A"EA de|
"D"f3/2d/2 Ad|"G"Bd "A"c/2d/2e|"D"d2 A2|"D7"F3/2F/2 GA|"G"Bd2B|\
"D""a"Ad "A"c/2d/2e|"D"d4-|d2 "E7"ed||
"A"cc "F#m"c/2B/2A|"Bm"BB "E"B/2A/2^G|"A"A"D"a2f|"A"e3/2c/2 "D"AB|\
"A""e"ce e/2d/2c|"E"Bd d/2c/2B|"A"A2 -"Em"A2|
"A"AA de|"D"f3/2d/2 Ad|"G"Bd "A"c/2d/2e|"D"d2 A2|"D7"F3/2F/2 GA|"G"Bd2B|\
"D""a"Ad "A"c/2d/2e|"D"d4-|d2 ||<end>
<start>
